X: 0
T: Avison
Z: Adapted from Charles Avison (1710-1770)
Z: Public  domain
L: 1/4
M: 6/4
Q: 1/4=120
V: P1 name="Unnamed-000"
%%MIDI program 1 19
V: P2 name="Avison"
%%MIDI program 2 19
K: C
[V: P1]  [C3/G3/] [C/A/] [CG] [CA] [CG] [Ec] | [B,D] [CE] [DF] [C3/4E3/4][B,/4D/4][C3/4E3/4][D/4F/4][E3/4G3/4][C/4A/4] | [C3/G3/] [C/A/] [CG] [CA] [CG] [Ec] | [B,D] [CE] [DF] [C3E3] | [C3/E3/] [D/F/] [CE] [DG] [B,G] [DF] | [C3/E3/] [D/F/] [CE] [CF] [CF] [CF] | [CE] [CE] [CE] [A,D] [A,D] [F,C] | [G,B,] [B,F] [CE] [CE] [B,D] [B,D] | [CE] [EA] [C^F] [B,G] D [B,=F] | [CE] [EA] [C^F] [B,G] D [B,=F] | [C3/E3/] [C/E/] [CE] [C3/E3/] [C/^F/] [CG] | [A,3D3] [A,2D2] [A,D] | G,4 [C3/G3/] [C/A/] | [CG] [CA] [CG] [Ec] [B,D] [CE] | [DF] [C3/4E3/4][B,/4D/4][C3/4E3/4][D/4F/4] [E3/4G3/4][C/4A/4] [C3/G3/] [C/A/] | [CG] [CA] [CG] [Ec] [B,D] [CE] | [DF] [C2-E2-] [CE] [C3/E3/] [D/F/] | [CE] [DG] [B,G] [DF] [C3/E3/] [D/F/] | [CE] [CF] [CF] [CF] [CE] [CE] | [CE] [A,D] [A,D] [F,C] [G,B,] [B,F] | [CE] [CE] [B,D] [B,D] [CE] [EA] | [C^F] [B,G] D [B,=F] [CE] [EA] | [C^F] [B,G] D [B,=F] [C3/E3/] [C/E/] | [CE] [C3/E3/] [C/^F/] [CG] [A,2-D2-] | [A,D] [A,2D2] [A,D] G,2- | G,2 [C-G-] [C/G/][C/A/] [CG] [CA] | [CG] [Ec] [B,D] [CE] [DF] [C3/4E3/4][B,/4D/4] | [C3/4E3/4][D/4F/4][E3/4G3/4][C/4A/4] [C-G-] [C/G/][C/A/] [CG] [CA] | [CG] [Ec] [B,D] [CE] [DF] [C-E-] | [C2E2] [C-E-] [C/E/][D/F/] [CE] [DG] | [B,G] [DF] [C-E-] [C/E/][D/F/] [CE] [CF] | [CF] [CF] [CE] [CE] [CE] [A,D] | [A,D] [F,C] [G,B,] [B,F] [CE] [CE] | [B,D] [B,D] [CE] [EA] [C^F] [B,G] | D [B,F] [CE] [EA] [C^F] [B,G] | D [B,F] [C-E-] [C/E/][C/E/] [CE] [C-E-] | [C/E/][C/^F/] [CG] [A,-D-] [A,2D2] [A,-D-] | [A,D] [A,D] G,- G,3 | [C3/G3/] [C/A/] [CG] [CA] [CG] [Ec] | [B,D] [CE] [DF] [C3/4E3/4][B,/4D/4][C3/4E3/4][D/4F/4][E3/4G3/4][C/4A/4] | [C3/G3/] [C/A/] [CG] [CA] [CG] [Ec] | [B,D] [CE] [DF] [C2E2] [CE] | [CD] [CD] [B,D] [C2E2] [CE] | [CD] [CD] [B,D] [G,3-C3-] | [G,3/4C3/4]z2z/4z3|]
[V: P2]  [C,3/E,3/] [C,/F,/] [C,E,] [C,F,] [C,E,] [C,G,] | [G,,G,] [G,,G,] [G,,G,] [C,2-G,2-] [C,3/4G,3/4][C,/4F,/4] | [C,3/E,3/] [C,/F,/] [C,E,] [C,F,] [C,E,] [C,G,] | [G,,G,] [G,,G,] [G,,G,] [C,3G,3] | [C,3/G,3/] [C,/G,/] [C,G,] [B,,G,] [G,,G,] [B,,G,] | [C,3/G,3/] [C,/G,/] [C,G,] [A,,F,] [A,,C,] [A,,F,] | [G,,G,] [G,,C,] [G,,E,] [F,,F,] [F,,F,] [E,,C,] | [D,,F,] [D,F,] [C,G,] [G,,2G,2] [G,,G,] | [C,G,] [A,,C] [D,A,] [G,,B,] [B,,G,] [G,,G,] | [C,G,] [A,,C] [D,A,] [G,,B,] [B,,G,] [G,,G,] | [C,3/G,3/] [C,/G,/] [C,G,] [C,3/C3/] [D,/A,/] [E,G,] | [D,3G,3] [D,2^F,2] [D,,F,] | [G,,4G,4] [C,3/E,3/] [C,/F,/] | [C,E,] [C,F,] [C,E,] [C,G,] [G,,G,] [G,,G,] | [G,,G,] [C,2-G,2-] [C,3/4G,3/4][C,/4F,/4] [C,3/E,3/] [C,/F,/] | [C,E,] [C,F,] [C,E,] [C,G,] [G,,G,] [G,,G,] | [G,,G,] [C,2-G,2-] [C,G,] [C,3/G,3/] [C,/G,/] | [C,G,] [B,,G,] [G,,G,] [B,,G,] [C,3/G,3/] [C,/G,/] | [C,G,] [A,,F,] [A,,C,] [A,,F,] [G,,G,] [G,,C,] | [G,,E,] [F,,F,] [F,,F,] [E,,C,] [D,,F,] [D,F,] | [C,G,] [G,,2G,2] [G,,G,] [C,G,] [A,,C] | [D,A,] [G,,B,] [B,,G,] [G,,G,] [C,G,] [A,,C] | [D,A,] [G,,B,] [B,,G,] [G,,G,] [C,3/G,3/] [C,/G,/] | [C,G,] [C,3/C3/] [D,/A,/] [E,G,] [D,2-G,2-] | [D,G,] [D,2^F,2] [D,,F,] [G,,2-G,2-] | [G,,2G,2] [C,-E,-] [C,/E,/][C,/F,/] [C,E,] [C,F,] | [C,E,] [C,G,] [G,,G,] [G,,G,] [G,,G,] [C,-G,-] | [C,3/G,3/] [C,/4G,/4][C,/4F,/4] [C,-E,-] [C,/E,/][C,/F,/] [C,E,] [C,F,] | [C,E,] [C,G,] [G,,G,] [G,,G,] [G,,G,] [C,-G,-] | [C,2G,2] [C,-G,-] [C,/G,/][C,/G,/] [C,G,] [B,,G,] | [G,,G,] [B,,G,] [C,-G,-] [C,/G,/][C,/G,/] [C,G,] [A,,F,] | [A,,C,] [A,,F,] [G,,G,] [G,,C,] [G,,E,] [F,,F,] | [F,,F,] [E,,C,] [D,,F,] [D,F,] [C,G,] [G,,-G,-] | [G,,G,] [G,,G,] [C,G,] [A,,C] [D,A,] [G,,B,] | [B,,G,] [G,,G,] [C,G,] [A,,C] [D,A,] [G,,B,] | [B,,G,] [G,,G,] [C,-G,-] [C,/G,/][C,/G,/] [C,G,] [C,-C-] | [C,/C/][D,/A,/] [E,G,] [D,-G,-] [D,2G,2] [D,-^F,-] | [D,^F,] [D,,F,] [G,,-G,-] [G,,3G,3] | [C,3/E,3/] [C,/F,/] [C,E,] [C,F,] [C,E,] [C,G,] | [G,,G,] [G,,G,] [G,,G,] [C,2-G,2-] [C,3/4G,3/4][C,/4F,/4] | [C,3/E,3/] [C,/F,/] [C,E,] [C,F,] [C,E,] [C,G,] | [G,,G,] [G,,G,] [G,,G,] [C,2G,2] [C,G,] | [A,,A,] [F,,A,] [G,,G,] [C,2G,2] [C,G,] | [A,,A,] [F,,A,] [G,,G,] [C,3-E,3-] | [C,3/4E,3/4]z2z/4z3|]

